src/img/logo-mob.svg

<svg width="226" height="210" viewBox="0 0 226 210" fill="none" xmlns="http://www.w3.org/2000/svg">
    <path d="M79.85 78.68C79.85 63.31 60.86 59.81 60.86 59.81C60.86 59.81 93.58 40.91 93.58 20.96C93.58 2.86999 73.89 0 65.21 0C32.8 0 0 25.89 0 52.02C0 71.99 17.95 67.72 17.95 67.72C15.7 65.55 13.44 60.6 13.44 52.62C13.44 33.78 39.36 9.75999 64.53 9.75999C76.2 9.75999 83.53 12.08 83.53 18.83C83.53 32.09 54.64 56.99 45.55 59.16C51.68 40.55 58.74 22.14 61.92 18.84C63.39 17.32 55.61 13.53 53.39 15.83C44.34 25.22 22.89 85.21 23.05 94.05C23.1 96.82 23.55 98.81 24.25 100.22C22.1 97.05 21.88 93.14 21.85 91.85C21.79 88.39 14.65 86.8 14.72 90.84C14.85 98.04 19.12 113.61 40.43 113.61C60.06 113.62 79.85 95.04 79.85 78.68ZM26.86 102.86C30.4 104.42 35.12 101.41 35.12 101.41C33.51 99.86 38.19 82.08 44.2 63.36C44.96 64.96 46.4 66.41 48.51 66.37C53.26 66.28 68.47 64.46 68.47 75.8C68.47 88.45 52.58 104.7 33.55 104.7C30.66 104.71 28.49 103.98 26.86 102.86Z" fill="#61B2AA"/>
    <path d="M83.4688 80.1003C83.4688 91.0803 88.2988 95.0903 94.2888 95.0903C100.309 95.0903 106.419 86.0203 111.179 76.4903C110.589 79.5303 110.239 82.0003 110.239 83.5803C110.239 96.2703 123.379 90.4503 123.379 90.4503C115.949 83.0203 132.079 34.8703 134.659 32.2903C136.119 30.8303 128.979 27.5803 125.039 31.5203C123.859 32.7003 121.299 39.6403 118.639 48.1603L118.619 48.0603C118.619 48.0603 102.969 85.6103 95.8888 85.6103C87.6088 85.6103 107.319 43.8603 107.319 36.6203C107.319 28.5603 93.5388 31.4603 95.3988 33.1703C99.0988 36.5403 83.4688 65.6103 83.4688 80.1003Z" fill="#61B2AA"/>
    <path d="M163.981 36.7815C163.991 38.5215 127.131 70.7415 127.191 80.0415C127.231 85.2715 129.441 87.6715 132.931 87.6515C141.901 87.5915 209.831 78.0415 216.401 71.1715C223.781 63.4715 214.602 57.0115 214.602 57.0115C214.762 66.2215 140.011 76.9415 140.011 76.9415C139.991 74.1315 165.371 47.6515 169.351 43.5015C174.981 37.6215 171.701 27.6515 165.691 27.6915C162.871 27.7115 140.051 33.1515 140.011 27.9515C140.001 26.1915 133.641 35.4615 137.631 39.5115C141.151 43.0715 163.961 35.0415 163.981 36.7815Z" fill="#61B2AA"/>
    <path d="M193.911 26.1011C193.941 27.3811 165.251 52.0911 165.411 58.9211C165.501 62.7611 167.861 63.8211 170.321 63.7711C175.091 63.6611 207.921 56.1311 211.581 52.2911C217.171 46.4311 209.431 40.8611 209.431 40.8611C209.661 47.6311 177.031 54.8711 177.031 54.8711C176.981 52.8011 196.171 35.2111 198.981 32.1611C204.671 25.9611 201.671 18.1111 195.891 18.2511C193.891 18.3011 175.351 21.4211 175.261 17.6011C175.231 16.3011 169.071 23.2211 174.161 28.0711C176.171 30.0011 193.881 24.8211 193.911 26.1011Z" fill="#61B2AA"/>
    <path d="M168.65 123.281C170.72 119.531 172.54 116.741 173.8 115.481C175.94 113.341 166.7 111.441 163.63 114.501C161.75 116.381 159.32 119.861 156.75 124.321C148.91 125.161 142.34 126.381 140.67 128.631C137.3 133.161 140.91 139.711 140.91 139.711C142.22 137.941 145.97 136.771 150.84 135.931C149.14 139.681 147.53 143.661 146.14 147.681C143.82 151.781 128.97 177.601 121.43 177.711C111.27 177.871 128.89 139.581 129.99 138.481C131.74 136.731 123.55 132.661 120.08 136.241C118.41 137.961 94.5704 185.671 118.24 185.671C127.34 185.671 135.84 175.401 141.65 166.131C140.34 177.951 143.36 187.041 155.04 187.041C173.66 187.041 185.51 158.111 185.51 153.781C185.51 147.801 179.3 147.101 179.3 147.101C179.3 151.481 165.75 179.841 156.16 179.841C145.94 179.841 154.34 153.641 163.07 134.491C175.18 133.461 188.01 133.011 190 130.811C194 126.401 190.17 119.301 190.17 119.301C190.52 121.651 180.07 122.411 168.65 123.281Z" fill="#61B2AA"/>
    <path d="M220.271 76.4883C220.271 89.3583 140.521 96.5183 120.391 98.1083C43.4209 104.188 28.7109 136.998 28.7109 152.068C28.7109 165.428 38.8909 177.438 55.5209 177.438C62.0609 177.438 67.3309 175.418 71.3309 172.968V172.978C72.9309 172.048 74.4909 171.028 76.0109 169.888C74.9009 171.598 73.3909 173.028 71.7609 174.258C71.4009 174.528 71.0409 174.788 70.6609 175.028C67.3809 185.338 65.1809 194.408 65.1809 199.488C65.1809 215.298 84.1809 208.148 82.3009 206.828C76.2109 202.568 81.7709 180.478 89.3009 159.628C94.6109 157.058 104.941 155.248 108.281 158.578C108.281 158.578 111.811 150.718 109.401 148.308C105.801 144.708 98.4509 146.538 93.6009 148.338C99.2509 134.258 105.001 122.598 107.331 120.268C112.031 115.568 99.6509 115.818 95.9609 119.518C91.6609 123.808 84.9709 137.328 78.9209 152.308C78.9209 152.308 78.9209 152.318 78.9109 152.328C78.5109 153.318 78.1109 154.318 77.7209 155.328C75.4109 160.268 69.4309 169.528 57.0909 169.528C48.0609 169.528 38.9009 164.298 38.9009 153.768C38.9009 137.208 52.7209 116.598 120.461 112.178C121.531 112.108 122.611 112.038 123.681 111.968C126.071 107.408 129.041 105.008 132.311 105.008C136.451 105.008 139.951 107.358 141.651 110.858C184.521 108.178 225.381 104.728 225.381 87.5583C225.381 78.1983 220.271 76.4883 220.271 76.4883Z" fill="#61B2AA"/>
    <path d="M138.518 115.76C138.518 112.18 135.828 109.27 132.308 109.27C126.808 109.27 120.038 130.86 128.368 130.86C133.438 130.86 138.518 118.93 138.518 115.76Z" fill="#61B2AA"/>
</svg>

<svg width="226" height="210" fill="none" xmlns="http://www.w3.org/2000/svg"><path d="M79.85 78.68c0-15.37-18.99-18.87-18.99-18.87s32.72-18.9 32.72-38.85C93.58 2.87 73.89 0 65.21 0 32.8 0 0 25.89 0 52.02c0 19.97 17.95 15.7 17.95 15.7-2.25-2.17-4.51-7.12-4.51-15.1 0-18.84 25.92-42.86 51.09-42.86 11.67 0 19 2.32 19 9.07 0 13.26-28.89 38.16-37.98 40.33 6.13-18.61 13.19-37.02 16.37-40.32 1.47-1.52-6.31-5.31-8.53-3.01-9.05 9.39-30.5 69.38-30.34 78.22.05 2.77.5 4.76 1.2 6.17-2.15-3.17-2.37-7.08-2.4-8.37-.06-3.46-7.2-5.05-7.13-1.01.13 7.2 4.4 22.77 25.71 22.77 19.63.01 39.42-18.57 39.42-34.93zm-52.99 24.18c3.54 1.56 8.26-1.45 8.26-1.45-1.61-1.55 3.07-19.33 9.08-38.05.76 1.6 2.2 3.05 4.31 3.01 4.75-.09 19.96-1.91 19.96 9.43 0 12.65-15.89 28.9-34.92 28.9-2.89.01-5.06-.72-6.69-1.84zM83.469 80.1c0 10.98 4.83 14.99 10.82 14.99 6.02 0 12.13-9.07 16.89-18.6-.59 3.04-.94 5.51-.94 7.09 0 12.69 13.14 6.87 13.14 6.87-7.43-7.43 8.7-55.58 11.28-58.16 1.46-1.46-5.68-4.71-9.62-.77-1.18 1.18-3.74 8.12-6.4 16.64l-.02-.1s-15.65 37.55-22.73 37.55c-8.28 0 11.43-41.75 11.43-48.99 0-8.06-13.78-5.16-11.92-3.45 3.7 3.37-11.93 32.44-11.93 46.93zm80.512-43.318c.01 1.74-36.85 33.96-36.79 43.26.04 5.23 2.25 7.63 5.74 7.61 8.97-.06 76.9-9.61 83.47-16.48 7.38-7.7-1.799-14.16-1.799-14.16.16 9.21-74.591 19.93-74.591 19.93-.02-2.81 25.36-29.29 29.34-33.44 5.63-5.88 2.35-15.85-3.66-15.81-2.82.02-25.64 5.46-25.68.26-.01-1.76-6.37 7.51-2.38 11.56 3.52 3.56 26.33-4.47 26.35-2.73z" fill="#61B2AA"/><path d="M193.911 26.101c.03 1.28-28.66 25.99-28.5 32.82.09 3.84 2.45 4.9 4.91 4.85 4.77-.11 37.6-7.64 41.26-11.48 5.59-5.86-2.15-11.43-2.15-11.43.23 6.77-32.4 14.01-32.4 14.01-.05-2.07 19.14-19.66 21.95-22.71 5.69-6.2 2.69-14.05-3.09-13.91-2 .05-20.54 3.17-20.63-.65-.03-1.3-6.19 5.62-1.1 10.47 2.01 1.93 19.72-3.25 19.75-1.97zm-25.261 97.18c2.07-3.75 3.89-6.54 5.15-7.8 2.14-2.14-7.1-4.04-10.17-.98-1.88 1.88-4.31 5.36-6.88 9.82-7.84.84-14.41 2.06-16.08 4.31-3.37 4.53.24 11.08.24 11.08 1.31-1.77 5.06-2.94 9.93-3.78-1.7 3.75-3.31 7.73-4.7 11.75-2.32 4.1-17.17 29.92-24.71 30.03-10.16.16 7.46-38.13 8.56-39.23 1.75-1.75-6.44-5.82-9.91-2.24-1.67 1.72-25.51 49.43-1.84 49.43 9.1 0 17.6-10.27 23.41-19.54-1.31 11.82 1.71 20.91 13.39 20.91 18.62 0 30.47-28.93 30.47-33.26 0-5.98-6.21-6.68-6.21-6.68 0 4.38-13.55 32.74-23.14 32.74-10.22 0-1.82-26.2 6.91-45.35 12.11-1.03 24.94-1.48 26.93-3.68 4-4.41.17-11.51.17-11.51.35 2.35-10.1 3.11-21.52 3.98z" fill="#61B2AA"/><path d="M220.271 76.488c0 12.87-79.75 20.03-99.88 21.62-76.97 6.08-91.68 38.89-91.68 53.96 0 13.36 10.18 25.37 26.81 25.37 6.54 0 11.81-2.02 15.81-4.47v.01c1.6-.93 3.16-1.95 4.68-3.09-1.11 1.71-2.62 3.14-4.25 4.37-.36.27-.72.53-1.1.77-3.28 10.31-5.48 19.38-5.48 24.46 0 15.81 19 8.66 17.12 7.34-6.09-4.26-.53-26.35 7-47.2 5.31-2.57 15.64-4.38 18.98-1.05 0 0 3.53-7.86 1.12-10.27-3.6-3.6-10.95-1.77-15.8.03 5.65-14.08 11.4-25.74 13.73-28.07 4.7-4.7-7.68-4.45-11.37-.75-4.3 4.29-10.99 17.81-17.04 32.79 0 0 0 .01-.01.02-.4.99-.8 1.99-1.19 3-2.31 4.94-8.29 14.2-20.63 14.2-9.03 0-18.19-5.23-18.19-15.76 0-16.56 13.82-37.17 81.56-41.59l3.22-.21c2.39-4.56 5.36-6.96 8.63-6.96 4.14 0 7.64 2.35 9.34 5.85 42.87-2.68 83.73-6.13 83.73-23.3 0-9.36-5.11-11.07-5.11-11.07z" fill="#61B2AA"/><path d="M138.518 115.76c0-3.58-2.69-6.49-6.21-6.49-5.5 0-12.27 21.59-3.94 21.59 5.07 0 10.15-11.93 10.15-15.1z" fill="#61B2AA"/></svg>
